assets/illustrations/multisize/16/vector.svg

<?xml version="1.0" encoding="utf-8"?>
<!-- Generator: Adobe Illustrator 21.1.0, SVG Export Plug-In . SVG Version: 6.00 Build 0)  -->
<svg version="1.1" xmlns="http://www.w3.org/2000/svg" xmlns:xlink="http://www.w3.org/1999/xlink" x="0px" y="0px"
	 viewBox="0 0 16 16" enable-background="new 0 0 16 16" xml:space="preserve">
<g id="TEMPLATE" display="none">
	<g display="inline">
		<path fill="#D0D0D0" d="M16,0v16H0V0H16 M17-1h-1H0h-1v1v16v1h1h16h1v-1V0V-1L17-1z"/>
	</g>
</g>
<g id="ICONS">
	<g>
		<polygon fill="#FFFFFF" points="13,15 3,15 3,1 11,1 13,2.9998 		"/>
		<path fill="#949494" d="M11,0H2v16h12V3L11,0z M11,1.5L12.5,3H11V1.5z M13,15H3V1h7v3h3V15z"/>
	</g>
	<circle fill="#0078D7" cx="5" cy="7" r="1"/>
	<g>
		<path fill="#0078D7" d="M12,12l-1.5,0.5L10,14l-2-4L12,12z"/>
	</g>
	<path fill="#0078D7" d="M6,12v1H5v-1H6 M7,11H6.2906H4.7094H4v0.7094v1.5812V14h0.7094h1.5812H7v-0.7094v-1.5812V11L7,11z"/>
	<g>
		<rect x="5" y="9" fill="#C8C8C8" width="1" height="1"/>
	</g>
	<path fill="#0078D7" d="M11,7v1h-1V7H11 M12,6h-0.7094H9.7094H9v0.7094v1.5812V9h0.7094h1.5812H12V8.2906V6.7094V6L12,6z"/>
	<g>
		<rect x="7" y="7" fill="#C8C8C8" width="1" height="1"/>
	</g>
</g>
</svg>

<svg id="dcaea167-d842-4bf0-bcf0-cb1681e265da" data-name="ICONS" xmlns="http://www.w3.org/2000/svg" viewBox="0 0 16 16"><title>FileTypeIcons_Master_All_NEW</title><polygon points="13 15 3 15 3 1 11 1 13 3 13 15" fill="#fff"/><path d="M11,0H2V16H14V3Zm0,1.5L12.5,3H11ZM13,15H3V1h7V4h3Z" fill="#949494"/><circle cx="5" cy="7" r="1" fill="#0078d7"/><path d="M12,12l-1.5.5L10,14,8,10Z" fill="#0078d7"/><path d="M6,12v1H5V12H6m1-1H4v3H7V11Z" fill="#0078d7"/><rect x="5" y="9" width="1" height="1" fill="#c8c8c8"/><path d="M11,7V8H10V7h1m1-1H9V9h3V6Z" fill="#0078d7"/><rect x="7" y="7" width="1" height="1" fill="#c8c8c8"/></svg>
